nova/resources/svg/fluent/arrow-right-circle.svg

<svg width="24" height="24" viewBox="0 0 24 24" fill="none" xmlns="http://www.w3.org/2000/svg">
<path d="M12.0007 2.00071C17.5236 2.00071 22.0007 6.47786 22.0007 12.0007C22.0007 17.5236 17.5236 22.0007 12.0007 22.0007C6.47788 22.0007 2.00073 17.5236 2.00073 12.0007C2.00073 6.47786 6.47788 2.00071 12.0007 2.00071ZM12.0007 3.50071C7.30631 3.50071 3.50073 7.30629 3.50073 12.0007C3.50073 16.6951 7.30631 20.5007 12.0007 20.5007C16.6952 20.5007 20.5007 16.6951 20.5007 12.0007C20.5007 7.30629 16.6952 3.50071 12.0007 3.50071ZM11.6478 7.55379L11.7204 7.46967C11.9867 7.2034 12.4033 7.1792 12.6969 7.39705L12.7811 7.46967L16.7819 11.4705C17.0482 11.7368 17.0724 12.1535 16.8544 12.4471L16.7818 12.5313L12.7803 16.5313C12.4873 16.8241 12.0124 16.824 11.7196 16.5311C11.4534 16.2647 11.4293 15.8481 11.6472 15.5545L11.7198 15.4704L14.4417 12.7497L7.75003 12.75C7.37033 12.75 7.05654 12.4678 7.00688 12.1018L7.00003 12C7.00003 11.6203 7.28218 11.3065 7.64826 11.2568L7.75003 11.25L14.4397 11.2497L11.7204 8.53033C11.4541 8.26406 11.4299 7.8474 11.6478 7.55379L11.7204 7.46967L11.6478 7.55379Z" fill="currentColor"/>
</svg>

<svg viewBox="0 0 24 24" fill="none" xmlns="http://www.w3.org/2000/svg"><path d="M12 2c5.524 0 10 4.478 10 10 0 5.524-4.476 10-10 10-5.522 0-10-4.476-10-10C2 6.479 6.479 2 12 2zm0 1.5a8.5 8.5 0 100 17 8.5 8.5 0 000-17zm-.352 4.054l.072-.084a.75.75 0 01.977-.073l.084.073 4 4a.75.75 0 01.073.977l-.072.084-4.002 4a.75.75 0 01-1.133-.976l.073-.085 2.722-2.72H7.75a.75.75 0 01-.743-.648L7 12a.75.75 0 01.648-.743l.102-.007h6.69l-2.72-2.72a.75.75 0 01-.072-.976l.072-.084-.072.084z" fill="currentColor"/></svg>
